UI/Map-View/SVG/west_solid_16px.svg

<svg width="16" height="16" viewBox="0 0 16 16" fill="none" xmlns="http://www.w3.org/2000/svg">
<path d="M8 7.00001L11 8.00001L8 9.00001V7.00001ZM1 8.00001L8 11L15 8.00001L8 5.00001L1 8.00001ZM8.48 13H8H7.52C6.48236 12.9097 5.50099 12.4891 4.72 11.8L1.41 10.35C1.89648 11.7082 2.7907 12.8828 3.97032 13.7133C5.14995 14.5438 6.55736 14.9895 8 14.9895C9.44264 14.9895 10.8501 14.5438 12.0297 13.7133C13.2093 12.8828 14.1035 11.7082 14.59 10.35L11.28 11.77C10.503 12.47 9.52119 12.9013 8.48 13ZM1.41 5.65001L4.72 4.23001C5.49704 3.52999 6.4788 3.09872 7.52 3.00001C7.85192 2.95665 8.18808 2.95665 8.52 3.00001C9.55764 3.0903 10.539 3.51088 11.32 4.20001L14.63 5.62001C14.1435 4.26187 13.2493 3.0872 12.0697 2.25672C10.8901 1.42623 9.48264 0.980499 8.04 0.980499C6.59736 0.980499 5.18995 1.42623 4.01032 2.25672C2.8307 3.0872 1.93648 4.26187 1.45 5.62001L1.41 5.65001Z" fill="#0F1621"/>
</svg>

<svg xmlns="http://www.w3.org/2000/svg" width="16" height="16" viewBox="0 0 16 16"><rect width="16" height="16" style="fill:none"/><path d="M8,7l3,1L8,9M1,8l7,3,7-3L8,5,1,8Zm7.48,5L8,13l-.48,0a4.87,4.87,0,0,1-2.8-1.2L1.41,10.35a7,7,0,0,0,13.18,0l-3.31,1.42A4.87,4.87,0,0,1,8.48,13ZM1.41,5.65,4.72,4.23A4.87,4.87,0,0,1,7.52,3a3.86,3.86,0,0,1,1,0,4.87,4.87,0,0,1,2.8,1.2l3.31,1.42a7,7,0,0,0-13.18,0Z"/></svg>
